web-app/src/assets/SVG/logo-light.svg

<svg width="140" height="53" viewBox="0 0 140 53" fill="none" xmlns="http://www.w3.org/2000/svg">
<rect x="5.39026" y="5.34106" width="41.9677" height="41.5845" rx="20.7923" fill="url(#paint0_linear_473_90)"/>
<path d="M56.7951 38.9939C55.3066 38.9939 53.9651 38.6609 52.7704 37.995C51.5953 37.3096 50.665 36.3793 49.9795 35.2042C49.2941 34.0095 48.9513 32.6484 48.9513 31.1207C48.9513 29.5735 49.2941 28.2124 49.9795 27.0373C50.665 25.8622 51.5953 24.9417 52.7704 24.2758C53.9455 23.6099 55.2871 23.277 56.7951 23.277C58.3227 23.277 59.6741 23.6099 60.8492 24.2758C62.0438 24.9417 62.9741 25.8622 63.64 27.0373C64.3255 28.2124 64.6682 29.5735 64.6682 31.1207C64.6682 32.6484 64.3255 34.0095 63.64 35.2042C62.9741 36.3793 62.0438 37.3096 60.8492 37.995C59.6545 38.6609 58.3031 38.9939 56.7951 38.9939ZM56.7951 37.1431C57.9114 37.1431 58.9005 36.8983 59.7622 36.4087C60.6239 35.8995 61.2996 35.1944 61.7892 34.2935C62.2985 33.373 62.5531 32.3154 62.5531 31.1207C62.5531 29.9065 62.2985 28.8489 61.7892 27.948C61.2996 27.0471 60.6239 26.3518 59.7622 25.8622C58.9005 25.353 57.9212 25.0984 56.8245 25.0984C55.7277 25.0984 54.7485 25.353 53.8867 25.8622C53.025 26.3518 52.3395 27.0471 51.8303 27.948C51.3211 28.8489 51.0665 29.9065 51.0665 31.1207C51.0665 32.3154 51.3211 33.373 51.8303 34.2935C52.3395 35.1944 53.025 35.8995 53.8867 36.4087C54.7485 36.8983 55.7179 37.1431 56.7951 37.1431ZM75.2133 38.9939C73.7249 38.9939 72.3833 38.6609 71.1886 37.995C70.0135 37.3096 69.0832 36.3793 68.3978 35.2042C67.7123 34.0095 67.3696 32.6484 67.3696 31.1207C67.3696 29.5735 67.7123 28.2124 68.3978 27.0373C69.0832 25.8622 70.0135 24.9417 71.1886 24.2758C72.3637 23.6099 73.7053 23.277 75.2133 23.277C76.7409 23.277 78.0923 23.6099 79.2674 24.2758C80.4621 24.9417 81.3924 25.8622 82.0582 27.0373C82.7437 28.2124 83.0865 29.5735 83.0865 31.1207C83.0865 32.6484 82.7437 34.0095 82.0582 35.2042C81.3924 36.3793 80.4621 37.3096 79.2674 37.995C78.0727 38.6609 76.7214 38.9939 75.2133 38.9939ZM75.2133 37.1431C76.3297 37.1431 77.3187 36.8983 78.1804 36.4087C79.0422 35.8995 79.7179 35.1944 80.2075 34.2935C80.7167 33.373 80.9713 32.3154 80.9713 31.1207C80.9713 29.9065 80.7167 28.8489 80.2075 27.948C79.7179 27.0471 79.0422 26.3518 78.1804 25.8622C77.3187 25.353 76.3395 25.0984 75.2427 25.0984C74.1459 25.0984 73.1667 25.353 72.305 25.8622C71.4432 26.3518 70.7578 27.0471 70.2485 27.948C69.7393 28.8489 69.4847 29.9065 69.4847 31.1207C69.4847 32.3154 69.7393 33.373 70.2485 34.2935C70.7578 35.1944 71.4432 35.8995 72.305 36.4087C73.1667 36.8983 74.1362 37.1431 75.2133 37.1431ZM88.9899 34.8517L89.0487 32.1783L98.6551 23.4239H101.211L94.4247 29.9163L93.2496 30.9151L88.9899 34.8517ZM87.3448 38.847V17.049H89.4306V38.847H87.3448ZM99.3014 38.847L92.8677 30.827L94.2191 29.2112L101.857 38.847H99.3014ZM110.937 38.9939C109.331 38.9939 107.921 38.6609 106.707 37.995C105.493 37.3096 104.543 36.3793 103.857 35.2042C103.172 34.0095 102.829 32.6484 102.829 31.1207C102.829 29.5931 103.152 28.2418 103.798 27.0667C104.464 25.8916 105.365 24.9711 106.501 24.3052C107.657 23.6197 108.949 23.277 110.379 23.277C111.828 23.277 113.111 23.6099 114.227 24.2758C115.363 24.9221 116.254 25.8426 116.901 27.0373C117.547 28.2124 117.87 29.5735 117.87 31.1207C117.87 31.2187 117.86 31.3264 117.841 31.4439C117.841 31.5418 117.841 31.6495 117.841 31.767H104.415V30.21H116.724L115.902 30.827C115.902 29.7106 115.657 28.7216 115.167 27.8598C114.697 26.9785 114.051 26.2931 113.229 25.8034C112.406 25.3138 111.456 25.069 110.379 25.069C109.321 25.069 108.371 25.3138 107.529 25.8034C106.687 26.2931 106.031 26.9785 105.561 27.8598C105.091 28.7412 104.856 29.7498 104.856 30.8857V31.2089C104.856 32.384 105.111 33.422 105.62 34.3229C106.149 35.2042 106.873 35.8995 107.794 36.4087C108.734 36.8983 109.801 37.1431 110.996 37.1431C111.936 37.1431 112.807 36.9766 113.61 36.6437C114.433 36.3107 115.138 35.8015 115.726 35.1161L116.901 36.4674C116.215 37.29 115.354 37.9167 114.316 38.3476C113.297 38.7784 112.171 38.9939 110.937 38.9939ZM128.256 38.9939C126.787 38.9939 125.465 38.6609 124.29 37.995C123.134 37.3292 122.223 36.4087 121.557 35.2336C120.892 34.0389 120.559 32.6679 120.559 31.1207C120.559 29.5539 120.892 28.183 121.557 27.0079C122.223 25.8328 123.134 24.9221 124.29 24.2758C125.465 23.6099 126.787 23.277 128.256 23.277C129.607 23.277 130.811 23.5805 131.869 24.1877C132.946 24.7948 133.798 25.6859 134.425 26.861C135.071 28.0165 135.394 29.4364 135.394 31.1207C135.394 32.7855 135.081 34.2054 134.454 35.3805C133.827 36.5556 132.975 37.4565 131.898 38.0832C130.841 38.6903 129.626 38.9939 128.256 38.9939ZM128.402 37.1431C129.499 37.1431 130.478 36.8983 131.34 36.4087C132.221 35.8995 132.907 35.1944 133.397 34.2935C133.906 33.373 134.16 32.3154 134.16 31.1207C134.16 29.9065 133.906 28.8489 133.397 27.948C132.907 27.0471 132.221 26.3518 131.34 25.8622C130.478 25.353 129.499 25.0984 128.402 25.0984C127.325 25.0984 126.356 25.353 125.494 25.8622C124.632 26.3518 123.947 27.0471 123.438 27.948C122.928 28.8489 122.674 29.9065 122.674 31.1207C122.674 32.3154 122.928 33.373 123.438 34.2935C123.947 35.1944 124.632 35.8995 125.494 36.4087C126.356 36.8983 127.325 37.1431 128.402 37.1431ZM134.219 38.847V34.2054L134.425 31.0914L134.131 27.9774V17.049H136.217V38.847H134.219Z" fill="white"/>
<path d="M15.1294 37.3822C14.6986 37.3822 14.2579 37.3528 13.8075 37.294C12.5736 37.1374 11.6629 36.775 11.0754 36.2071C10.5074 35.6391 10.2234 35.0222 10.2234 34.3563C10.2234 33.6317 10.5466 32.9756 11.1929 32.388C11.8392 31.7809 12.7499 31.4773 13.925 31.4773C14.7084 31.4773 15.5603 31.634 16.4808 31.9474C16.99 32.1236 17.5971 32.4174 18.3022 32.8287C19.0073 33.24 19.82 33.6708 20.7405 34.1213C21.7198 33.1812 22.6109 32.0159 23.4139 30.6254C24.2364 29.2348 25.0492 27.7464 25.8522 26.16C26.6747 24.5541 27.5561 22.9481 28.4961 21.3421C29.4558 19.7362 30.5623 18.2281 31.8158 16.818L33.5197 14.9085C32.795 14.791 32.041 14.7028 31.2576 14.6441C30.4742 14.5657 29.6614 14.5266 28.8193 14.5266C27.7617 14.5266 26.6747 14.5853 25.5584 14.7028C24.4421 14.8008 23.3257 14.9672 22.2094 15.2023C20.3684 15.594 18.8114 16.2207 17.5384 17.0824C16.2654 17.9441 15.2959 18.8842 14.63 19.9026C13.9837 20.9015 13.6606 21.8415 13.6606 22.7229C13.6606 23.33 13.827 23.8784 14.16 24.368C14.5125 24.838 15.0315 25.1808 15.717 25.3962C16.1479 25.5333 16.5885 25.6018 17.039 25.6018C17.7049 25.6018 18.2924 25.4647 18.8016 25.1906C19.3108 24.9164 19.7417 24.5834 20.0942 24.1917C20.4467 23.7804 20.7013 23.3887 20.858 23.0166C21.0343 22.6445 21.1126 22.3703 21.093 22.1941C21.093 22.057 21.191 21.9884 21.3868 21.9884C21.5827 21.9884 21.6806 22.1353 21.6806 22.4291V22.4585C21.6806 23.2614 21.4358 23.9567 20.9462 24.5443C20.4565 25.1318 19.8396 25.5823 19.0954 25.8956C18.3707 26.209 17.6363 26.3657 16.8921 26.3657C16.422 26.3657 15.9324 26.2873 15.4232 26.1306C14.3656 25.7585 13.5822 25.2199 13.073 24.5149C12.5638 23.7902 12.3092 22.9971 12.3092 22.1353C12.3092 21.3323 12.5246 20.5098 12.9555 19.6676C13.406 18.8059 14.0621 17.9931 14.9238 17.2293C15.7855 16.4459 16.8529 15.7702 18.1259 15.2023C19.4185 14.6343 20.907 14.2328 22.5913 13.9978C23.4922 13.8607 24.3833 13.7628 25.2646 13.704C26.146 13.6453 26.9979 13.6159 27.8205 13.6159C28.9564 13.6159 30.0629 13.6746 31.1401 13.7921C32.2369 13.8901 33.2651 14.0467 34.2247 14.2622C34.4989 14.0272 34.7731 13.8215 35.0473 13.6453C35.3411 13.469 35.6055 13.3319 35.8405 13.234C35.9776 13.1752 36.0951 13.136 36.193 13.1165C36.2909 13.0969 36.3693 13.0871 36.428 13.0871C36.5455 13.0871 36.6043 13.1263 36.6043 13.2046C36.6043 13.3025 36.4574 13.4592 36.1636 13.6746C35.9678 13.8117 35.7817 13.9684 35.6055 14.1447C35.4292 14.3014 35.3215 14.4189 35.2823 14.4972C37.28 15.0064 38.8957 15.7115 40.1296 16.6124C41.383 17.4937 42.0097 18.5415 42.0097 19.7557C42.0097 20.3825 41.8041 21.0679 41.3928 21.8122C40.9619 22.5368 40.3646 23.1244 39.6008 23.5748C38.837 24.0057 38.0242 24.3288 37.1625 24.5443C36.3007 24.7401 35.4977 24.8576 34.7535 24.8968C35.3998 25.0926 36.1049 25.3864 36.8687 25.7781C37.6521 26.1502 38.3669 26.6105 39.0132 27.1588C39.6791 27.7072 40.1198 28.3535 40.3352 29.0978C40.4723 29.5678 40.5409 30.0476 40.5409 30.5372C40.5409 31.5752 40.2373 32.5153 39.6302 33.3575C39.0426 34.1996 38.2494 34.9243 37.2506 35.5314C36.2714 36.1189 35.1942 36.5694 34.0191 36.8828C32.844 37.2157 31.6787 37.3822 30.5232 37.3822C30.0923 37.3822 29.6517 37.3528 29.2012 37.294C27.321 37.059 25.764 36.7652 24.5302 36.4127C23.3159 36.0602 22.2486 35.6685 21.3281 35.2376C19.4283 36.6673 17.3621 37.3822 15.1294 37.3822ZM30.1119 36.5302C31.3262 36.5302 32.4327 36.3442 33.4315 35.9721C34.4304 35.5999 35.2921 35.1103 36.0167 34.5032C36.761 33.8961 37.3289 33.2204 37.7206 32.4761C38.1319 31.7319 38.3376 30.9975 38.3376 30.2728C38.3376 29.5874 38.1319 28.9215 37.7206 28.2752C37.3094 27.6289 36.663 27.0903 35.7817 26.6594C35.0179 26.2873 34.2247 25.9837 33.4022 25.7487C32.5992 25.4941 31.9039 25.2787 31.3164 25.1024C30.7288 24.9066 30.3861 24.7107 30.2882 24.5149C30.2882 24.2799 30.3861 24.1232 30.5819 24.0448C30.7974 23.9469 31.0716 23.898 31.4045 23.898C31.7962 23.898 32.2662 23.9273 32.8146 23.9861C33.363 24.0448 33.9407 24.0742 34.5479 24.0742C35.1746 24.0742 35.8111 23.9371 36.4574 23.6629C37.1233 23.3692 37.7304 22.9873 38.2788 22.5172C38.8272 22.0276 39.2678 21.4988 39.6008 20.9308C39.9533 20.3433 40.1296 19.746 40.1296 19.1388C40.1296 18.5904 39.9435 18.0519 39.5714 17.5231C39.1993 16.9943 38.5824 16.534 37.7206 16.1423C36.8589 15.7506 35.9286 15.4373 34.9298 15.2023C33.9505 16.5536 32.9713 18.0714 31.992 19.7557C31.0128 21.4205 30.0336 23.1146 29.0543 24.838C28.0751 26.5419 27.086 28.1577 26.0872 29.6853C25.0884 31.2129 24.0895 32.5251 23.0907 33.6219C22.8557 33.8765 22.6696 34.0723 22.5325 34.2094C22.3954 34.3269 22.2094 34.4934 21.9744 34.7088C22.8949 35.0809 23.9426 35.4335 25.1177 35.7664C26.2928 36.0994 27.6344 36.3344 29.1424 36.4715C29.2991 36.4911 29.4558 36.5008 29.6125 36.5008C29.7887 36.5204 29.9552 36.5302 30.1119 36.5302ZM14.5419 36.4715C15.6386 36.5302 16.6375 36.4029 17.5384 36.0896C18.4589 35.7566 19.3108 35.2964 20.0942 34.7088C19.4087 34.3759 18.7037 34.0331 17.979 33.6806C17.274 33.3085 16.52 32.9756 15.717 32.6818C15.149 32.4859 14.63 32.388 14.16 32.388C13.4353 32.388 12.887 32.5839 12.5149 32.9756C12.1427 33.3477 11.9567 33.7785 11.9567 34.2682C11.9567 34.7774 12.1721 35.267 12.603 35.737C13.0339 36.1875 13.6802 36.4323 14.5419 36.4715Z" fill="white"/>
<defs>
<linearGradient id="paint0_linear_473_90" x1="26.3741" y1="5.34106" x2="26.3741" y2="46.9256" gradientUnits="userSpaceOnUse">
<stop stop-color="#9B51E0"/>
<stop offset="1" stop-color="#720ECF"/>
</linearGradient>
</defs>
</svg>

<svg xmlns="http://www.w3.org/2000/svg" width="140" height="53" fill="none"><rect width="41.968" height="41.584" x="5.39" y="5.341" fill="url(#a)" rx="20.792"/><path fill="#fff" d="M56.795 38.994c-1.488 0-2.83-.333-4.025-.999a7.628 7.628 0 0 1-2.79-2.79c-.686-1.195-1.029-2.557-1.029-4.084 0-1.547.343-2.909 1.029-4.084a7.407 7.407 0 0 1 2.79-2.761c1.175-.666 2.517-.999 4.025-.999 1.528 0 2.88.333 4.054.999a7.14 7.14 0 0 1 2.791 2.761c.686 1.175 1.028 2.537 1.028 4.084 0 1.527-.343 2.889-1.028 4.083a7.345 7.345 0 0 1-2.79 2.791c-1.196.666-2.547.999-4.055.999Zm0-1.85c1.116 0 2.105-.246 2.967-.735a5.402 5.402 0 0 0 2.027-2.115c.51-.921.764-1.979.764-3.173 0-1.214-.255-2.272-.764-3.173a5.198 5.198 0 0 0-2.027-2.086c-.861-.509-1.84-.764-2.938-.764-1.096 0-2.075.255-2.937.764a5.399 5.399 0 0 0-2.057 2.086c-.509.9-.764 1.959-.764 3.173 0 1.194.255 2.252.764 3.173.51.9 1.195 1.606 2.057 2.115.861.49 1.83.734 2.908.734Zm18.418 1.85c-1.488 0-2.83-.333-4.024-.999a7.627 7.627 0 0 1-2.791-2.79c-.686-1.195-1.028-2.557-1.028-4.084 0-1.547.342-2.909 1.028-4.084a7.406 7.406 0 0 1 2.79-2.761c1.176-.666 2.517-.999 4.025-.999 1.528 0 2.88.333 4.054.999a7.138 7.138 0 0 1 2.791 2.761c.686 1.175 1.028 2.537 1.028 4.084 0 1.527-.342 2.889-1.028 4.083a7.344 7.344 0 0 1-2.79 2.791c-1.195.666-2.547.999-4.055.999Zm0-1.85c1.117 0 2.106-.246 2.967-.735a5.402 5.402 0 0 0 2.027-2.115c.51-.921.764-1.979.764-3.173 0-1.214-.254-2.272-.764-3.173a5.197 5.197 0 0 0-2.027-2.086c-.861-.509-1.84-.764-2.937-.764-1.097 0-2.076.255-2.938.764a5.399 5.399 0 0 0-2.056 2.086c-.51.9-.764 1.959-.764 3.173 0 1.194.254 2.252.764 3.173.509.9 1.194 1.606 2.056 2.115.862.49 1.831.734 2.908.734Zm13.777-2.292.059-2.674 9.606-8.754h2.556l-6.786 6.492-1.175 1-4.26 3.936Zm-1.645 3.995V17.049h2.086v21.798h-2.086Zm11.956 0-6.433-8.02 1.351-1.616 7.638 9.636h-2.556Zm11.636.147c-1.606 0-3.016-.333-4.23-.999a7.508 7.508 0 0 1-2.85-2.79c-.685-1.195-1.028-2.557-1.028-4.084 0-1.528.323-2.88.969-4.054a7.322 7.322 0 0 1 2.703-2.762c1.156-.685 2.448-1.028 3.878-1.028 1.449 0 2.732.333 3.848.999 1.136.646 2.027 1.567 2.674 2.761.646 1.175.969 2.537.969 4.084 0 .098-.01.205-.029.323v.323h-13.426V30.21h12.309l-.822.617c0-1.116-.245-2.105-.735-2.967a5.17 5.17 0 0 0-1.938-2.057c-.823-.49-1.773-.734-2.85-.734-1.058 0-2.008.245-2.85.734a5.107 5.107 0 0 0-1.968 2.057c-.47.881-.705 1.89-.705 3.026v.323c0 1.175.255 2.213.764 3.114a5.705 5.705 0 0 0 2.174 2.086c.94.49 2.007.734 3.202.734.94 0 1.811-.166 2.614-.5a5.443 5.443 0 0 0 2.116-1.527l1.175 1.351a6.599 6.599 0 0 1-2.585 1.88c-1.019.431-2.145.647-3.379.647Zm17.319 0c-1.469 0-2.791-.333-3.966-.999a7.254 7.254 0 0 1-2.733-2.761c-.665-1.195-.998-2.566-.998-4.113 0-1.567.333-2.938.998-4.113a7.045 7.045 0 0 1 2.733-2.732c1.175-.666 2.497-.999 3.966-.999 1.351 0 2.555.303 3.613.91 1.077.608 1.929 1.499 2.556 2.674.646 1.155.969 2.575.969 4.26 0 1.665-.313 3.084-.94 4.26-.627 1.175-1.479 2.075-2.556 2.702-1.057.607-2.272.91-3.642.91Zm.146-1.85c1.097 0 2.076-.246 2.938-.735a5.347 5.347 0 0 0 2.057-2.115c.509-.921.763-1.979.763-3.173 0-1.214-.254-2.272-.763-3.173a5.15 5.15 0 0 0-2.057-2.086c-.862-.509-1.841-.764-2.938-.764-1.077 0-2.046.255-2.908.764a5.394 5.394 0 0 0-2.056 2.086c-.51.9-.764 1.959-.764 3.173 0 1.194.254 2.252.764 3.173a5.61 5.61 0 0 0 2.056 2.115c.862.49 1.831.734 2.908.734Zm5.817 1.703v-4.642l.206-3.114-.294-3.114V17.05h2.086v21.798h-1.998ZM15.13 37.382c-.431 0-.872-.03-1.323-.088-1.233-.157-2.144-.519-2.732-1.087-.568-.568-.852-1.185-.852-1.85 0-.725.324-1.381.97-1.969.646-.607 1.557-.91 2.732-.91.783 0 1.635.156 2.556.47.509.176 1.116.47 1.821.88.705.412 1.518.843 2.439 1.293.979-.94 1.87-2.105 2.673-3.496a77.743 77.743 0 0 0 2.438-4.465 97.793 97.793 0 0 1 2.644-4.818 29.824 29.824 0 0 1 3.32-4.524l1.704-1.91a26.516 26.516 0 0 0-2.262-.264 24.49 24.49 0 0 0-2.439-.117c-1.057 0-2.144.058-3.26.176a28.209 28.209 0 0 0-3.35.5c-1.84.391-3.398 1.018-4.67 1.88-1.274.861-2.243 1.801-2.909 2.82-.646.998-.97 1.939-.97 2.82 0 .607.167 1.155.5 1.645.352.47.871.813 1.557 1.028.43.137.871.206 1.322.206.666 0 1.253-.137 1.763-.411.509-.275.94-.608 1.292-1 .353-.41.607-.802.764-1.174.176-.372.255-.647.235-.823 0-.137.098-.206.294-.206.196 0 .294.147.294.441v.03c0 .802-.245 1.498-.735 2.085a4.78 4.78 0 0 1-1.85 1.352c-.725.313-1.46.47-2.204.47-.47 0-.96-.079-1.469-.235-1.057-.372-1.84-.911-2.35-1.616a4.051 4.051 0 0 1-.764-2.38c0-.803.216-1.625.647-2.467.45-.862 1.106-1.675 1.968-2.439.862-.783 1.929-1.459 3.202-2.027 1.293-.568 2.781-.97 4.465-1.204.901-.137 1.792-.235 2.674-.294a38.49 38.49 0 0 1 2.555-.088c1.136 0 2.243.059 3.32.176 1.097.098 2.125.255 3.085.47.274-.235.548-.44.822-.617a6.23 6.23 0 0 1 .794-.411c.137-.059.254-.098.352-.117.098-.02.176-.03.235-.03.117 0 .176.04.176.118 0 .098-.147.254-.44.47a4.173 4.173 0 0 0-.559.47c-.176.156-.283.274-.323.352 1.998.51 3.614 1.214 4.848 2.115 1.253.882 1.88 1.93 1.88 3.144 0 .627-.206 1.312-.617 2.056a4.99 4.99 0 0 1-1.792 1.763 9.756 9.756 0 0 1-2.438.97c-.862.195-1.665.313-2.41.352.647.196 1.352.49 2.116.881a9.793 9.793 0 0 1 2.144 1.38c.666.55 1.107 1.195 1.322 1.94.137.47.206.95.206 1.44a4.71 4.71 0 0 1-.91 2.82c-.588.842-1.382 1.566-2.38 2.173a12.51 12.51 0 0 1-3.232 1.352c-1.175.333-2.34.5-3.496.5-.43 0-.871-.03-1.322-.089-1.88-.235-3.437-.529-4.67-.881-1.215-.353-2.282-.744-3.203-1.175-1.9 1.43-3.966 2.144-6.199 2.144Zm14.982-.852c1.214 0 2.32-.186 3.32-.558.998-.372 1.86-.862 2.585-1.469.744-.607 1.312-1.283 1.704-2.027.41-.744.617-1.479.617-2.203 0-.686-.206-1.351-.617-1.998-.412-.646-1.058-1.185-1.94-1.616a14.548 14.548 0 0 0-2.379-.91c-.803-.255-1.498-.47-2.086-.647-.587-.195-.93-.391-1.028-.587 0-.235.098-.392.294-.47.215-.098.49-.147.822-.147.392 0 .862.03 1.41.088.549.059 1.127.088 1.734.088.627 0 1.263-.137 1.91-.411a7.324 7.324 0 0 0 1.82-1.146 6.626 6.626 0 0 0 1.323-1.586c.352-.588.529-1.185.529-1.792 0-.549-.187-1.087-.559-1.616-.372-.529-.989-.989-1.85-1.38a15.065 15.065 0 0 0-2.791-.94 54.17 54.17 0 0 0-2.938 4.553 392.84 392.84 0 0 0-2.938 5.082 98.983 98.983 0 0 1-2.967 4.847c-.999 1.528-1.997 2.84-2.996 3.937-.235.255-.421.45-.559.587a23.9 23.9 0 0 0-.558.5c.92.372 1.969.724 3.144 1.057 1.175.333 2.516.568 4.024.706.157.02.314.029.47.029.177.02.343.03.5.03Zm-15.57-.059c1.097.06 2.095-.068 2.996-.381a9.782 9.782 0 0 0 2.556-1.381L17.98 33.68a18.341 18.341 0 0 0-2.262-1c-.568-.195-1.087-.293-1.557-.293-.725 0-1.273.196-1.645.588-.372.372-.558.803-.558 1.292 0 .51.215.999.646 1.469.43.45 1.077.695 1.939.734Z"/><defs><linearGradient id="a" x1="26.374" x2="26.374" y1="5.341" y2="46.926" gradientUnits="userSpaceOnUse"><stop stop-color="#9B51E0"/><stop offset="1" stop-color="#720ECF"/></linearGradient></defs></svg>
